X:1
T:Blessing, 55.9
T:Blessing, 55.9
T:Traditional Melody
T:Public Domain Courtesy of the Cyber Hymnal™
C:Traditional Melody
Z:Public Domain
Z:Courtesy of the Cyber Hymnal™
%%score ( 1 2 ) ( 3 4 )
L:1/8
Q:1/4=110
M:3/4
K:A
V:1 treble 
V:2 treble 
V:3 bass 
V:4 bass 
V:1
 E2 | [CA]2 [EA]2 (BA) | (A2 G2) E2 | [DB]2 [DB]2 ([Ec][DB]) | ([DB]2 [CA]2) E2 | %5
 [Ec]2 [Ec]2 [Ec]2 | [Fc]2 [FB]2 (dB) | A4 [DG]2 | [CA]4 |] %9
V:2
 E2 | x4 E2 | E4 E2 | x6 | x4 E2 | x6 | x4 F2 | E2 E2 x2 | x4 |] %9
V:3
 E,2 | [A,,E,]2 [A,C]2 (DC) | (C2 B,2) E,2 | [E,G,]2 [E,G,]2 [E,G,]2 | [A,,E,]4 E,2 | %5
 [A,,A,]2 [C,A,]2 [A,,A,]2 | [D,A,]2 [D,B,]2 B,2 | (C2 =C2 B,2) | [A,,A,]4 |] %9
V:4
 E,2 | x4 A,2 | E,4 E,2 | x6 | x4 E,2 | x6 | x4 (B,,D,) | E,6 | x4 |] %9

